svgs/icons/sm/food.svg

<svg xmlns="http://www.w3.org/2000/svg" viewBox="0 0 16 16" enable-background="new 0 0 16 16"><g fill="#34363D"><path d="M6.5 0c-.3 0-.5.2-.5.5v4.5c0 .2-.2.4-.5.4s-.4-.2-.5-.4v-4.5c0-.3-.2-.5-.5-.5s-.5.2-.5.5v4.5c0 .2-.2.4-.5.4s-.4-.2-.5-.4v-4.5c0-.3-.2-.5-.5-.5s-.5.2-.5.5v5.6c0 .5.4.9.9.9h.1v7.5c0 .8.7 1.5 1.5 1.5s1.5-.7 1.5-1.5v-7.5h.1c.5 0 .9-.4.9-.9v-5.6c0-.3-.2-.5-.5-.5zM12.7 0c-2.5 0-3.7 4.7-3.7 7v1c0 .6.4 1 1 1h1v5.5c0 .8.7 1.5 1.5 1.5s1.5-.7 1.5-1.5v-13.4c0-.6-.6-1.1-1.3-1.1z"/></g></svg>

<svg xmlns="http://www.w3.org/2000/svg" viewBox="0 0 16 16"><path d="M6.5 0c-.3 0-.5.2-.5.5V5c0 .2-.2.4-.5.4S5.1 5.2 5 5V.5c0-.3-.2-.5-.5-.5S4 .2 4 .5V5c0 .2-.2.4-.5.4S3.1 5.2 3 5V.5c0-.3-.2-.5-.5-.5S2 .2 2 .5v5.6c0 .5.4.9.9.9H3v7.5c0 .8.7 1.5 1.5 1.5S6 15.3 6 14.5V7h.1c.5 0 .9-.4.9-.9V.5c0-.3-.2-.5-.5-.5zm6.2 0C10.2 0 9 4.7 9 7v1c0 .6.4 1 1 1h1v5.5c0 .8.7 1.5 1.5 1.5s1.5-.7 1.5-1.5V1.1c0-.6-.6-1.1-1.3-1.1z" fill="#34363D"/></svg>
